**kern	**silbe	**kern	**silbe
*ICvox	*	*ICvox	*
*A:	*	*A:	*
*M4/4	*	*M4/4	*
*clefG2	*	*clefG2	*
r;	.	r;	.
=1	=1	=1	=1
1r	.	1r	.
=2	=2	=2	=2
*M2/4	*	*M2/4	*
2r	.	2r	.
=3	=3	=3	=3
*M4/4	*	*M4/4	*
1r	.	1r	.
=4	=4	=4	=4
1r	.	1r	.
=5	=5	=5	=5
1r	.	1r	.
=6	=6	=6	=6
1r	.	1r	.
=7	=7	=7	=7
1r	.	1r	.
=8	=8	=8	=8
1r	.	1r	.
=9	=9	=9	=9
16G	Wal-	1r	.
16A	-king	.	.
16A	like	.	.
16G	a	.	.
8A	man	.	.
8r	.	.	.
16G	Hit-	.	.
16A	-ting	.	.
16A	like	.	.
16G	a	.	.
16G	ham-	.	.
16A	-mer	.	.
16G	She's	.	.
16G	a	.	.
=10	=10	=10	=10
16G	ju-	1r	.
16G	-ven-	.	.
8G	-ile	.	.
16G	scam	.	.
16A	_	.	.
8r	.	.	.
16G	Ne-	.	.
16A	-ver	.	.
16A	was	.	.
16G	a	.	.
16A	qui-	.	.
8E	-tter	.	.
16r	.	.	.
=11	=11	=11	=11
16G	Tas-	1r	.
16A	-ty	.	.
16A	like	.	.
16G	a	.	.
8A	rain-	.	.
8E	-drop	.	.
8r	.	.	.
8G	She's	.	.
8A	got	.	.
16G	the	.	.
[16A	look	.	.
=12	=12	=12	=12
16A]	_	1r	.
16r	.	.	.
8r	.	.	.
4r	.	.	.
2r	.	.	.
=13	=13	=13	=13
16G	Hea-	1r	.
16A	-ven-	.	.
16A	-ly	.	.
16G	_	.	.
8A	bound	.	.
16r	.	.	.
16A	'Cause	.	.
16G	hea-	.	.
16A	-ven's	.	.
16A	got	.	.
16G	a	.	.
16A	num-	.	.
16A	-ber	.	.
16A	When	.	.
16G	she's	.	.
=14	=14	=14	=14
16G	spin-	1r	.
16G	-ning	.	.
16G	me	.	.
16G	a-	.	.
8A	-round	.	.
8r	.	.	.
16G	Kis-	.	.
16A	-sing	.	.
16A	is	.	.
16G	a	.	.
16A	col-	.	.
16E	-or	.	.
16r	.	.	.
16E	Her	.	.
=15	=15	=15	=15
16G	lov-	1r	.
16A	-ning	.	.
16A	is	.	.
16G	a	.	.
8A	wild	.	.
8E	dog	.	.
8r	.	.	.
8G	She's	.	.
8A	got	.	.
16G	the	.	.
[16A	look	.	.
=16	=16	=16	=16
16A]	_	1r	.
8.r	.	.	.
4r	.	.	.
8r	.	.	.
8G	She's	.	.
8A	got	.	.
16G	the	.	.
[16A	look	.	.
=17	=17	=17	=17
16A]	_	16r	.
8.r	.	16~a	Uh
.	.	8cc	she's
4r	.	8b	got
.	.	16a	the
.	.	[16b	look
8r	.	16b]	_
.	.	16cc	_
8G	She's	8r	.
8A	got	4r	.
16G	the	.	.
[16A	look	.	.
=18	=18	=18	=18
16A]	_	16r	.
8.r	.	16~e	Uh
.	.	8g	she's
4r	.	8a	got
.	.	16g	the
.	.	[16a	look
8r	.	16a]	_
.	.	16g	_
8A	What	16e	_
.	.	16r	.
16A	in	4r	.
8A	the	.	.
[16c	world	.	.
=19	=19	=19	=19
8c]	_	1r	.
8c	can	.	.
8c	make	.	.
8c	a	.	.
16B	brown-	.	.
8B	-eyed	.	.
8.B	girl	.	.
8B	turn	.	.
=20	=20	=20	=20
8B	blue?	1r	.
8A	_	.	.
4r	.	.	.
8r	.	.	.
8A	When	.	.
16A	ev-	.	.
8A	-ery-	.	.
[16c	-thing	.	.
=21	=21	=21	=21
8c]	_	1r	.
8c	I'll	.	.
16c	e-	.	.
8c	-ver	.	.
[16B	do	.	.
8B]	_	.	.
8B	I	.	.
8B	do	.	.
16B	for	.	.
[16B	you	.	.
=22	=22	=22	=22
16B]	_	1r	.
8.A	_	.	.
4r	.	.	.
8r	.	.	.
8A	And	.	.
16A	I	.	.
8.A	go	.	.
=23	=23	=23	=23
8e	la	1r	.
16e	la	.	.
[16e	la	.	.
16e]	_	.	.
16e	la	.	.
16d	_	.	.
[16d	la	.	.
16d]	_	.	.
16r	.	.	.
8~G	She's	.	.
8~c	got	.	.
16B	the	.	.
[16B	look	.	.
=24	=24	=24	=24
16B]	_	1r	.
8.A	_	.	.
4r	.	.	.
2r	.	.	.
=25	=25	=25	=25
1r	.	1r	.
=26	=26	=26	=26
16G	Fi-	1r	.
16A	-re	.	.
16A	in	.	.
16G	the	.	.
8A	ice	.	.
8r	.	.	.
16G	Na-	.	.
16A	-ked	.	.
16A	in	.	.
16G	the	.	.
16G	t-	.	.
16A	-bone	.	.
16A	is	.	.
16G	a	.	.
=27	=27	=27	=27
16A	lov-	1r	.
16G	-er's	.	.
8G	dis-	.	.
16G	-guise	.	.
16A	_	.	.
8r	.	.	.
16G	Bang-	.	.
16A	-ing	.	.
16A	on	.	.
16G	the	.	.
8A	head	.	.
8A	drum	.	.
=28	=28	=28	=28
16G	Sha-	1r	.
16A	-king	.	.
16A	like	.	.
16G	a	.	.
8A	mad	.	.
8E	bull	.	.
8r	.	.	.
8G	She's	.	.
8A	got	.	.
16G	the	.	.
[16A	look	.	.
=29	=29	=29	=29
16A]	_	1r	.
8.r	.	.	.
4r	.	.	.
2r	.	.	.
=30	=30	=30	=30
16G	Swa-	1r	.
16A	-ying	.	.
16A	to	.	.
16G	the	.	.
8A	band	.	.
8r	.	.	.
16G	Mo-	.	.
16A	-ving	.	.
16A	like	.	.
16G	a	.	.
16A	ha-	.	.
16A	-mmer	.	.
16A	She's	.	.
16G	a	.	.
=31	=31	=31	=31
16A	mir-	1r	.
16G	-a-	.	.
8G	-cle	.	.
16G	man	.	.
16A	_	.	.
8r	.	.	.
16G	Lo-	.	.
16A	-ving	.	.
16A	is	.	.
16G	the	.	.
16A	o-	.	.
8E	-cean	.	.
16r	.	.	.
=32	=32	=32	=32
16G	Kiss-	1r	.
16A	-ing	.	.
16A	is	.	.
16G	the	.	.
8A	wet	.	.
8E	sand	.	.
8r	.	.	.
8d	She's	.	.
8d	got	.	.
16B	the	.	.
[16c#	look	.	.
=33	=33	=33	=33
16c#]	_	1r	.
8.r	.	.	.
4r	.	.	.
8r	.	.	.
8G	She's	.	.
8A	got	.	.
16G	the	.	.
[16A	look	.	.
=34	=34	=34	=34
16A]	_	8r	.
16r	.	.	.
8r	.	8cc	she's
4r	.	8b	got
.	.	16a	the
.	.	[16b	look
8r	.	16b]	_
.	.	16cc	_
8G	She's	8r	.
8A	got	4r	.
16G	the	.	.
[16A	look	.	.
=35	=35	=35	=35
16A]	_	16r	.
8.r	.	16~e	Uh
.	.	8g	she's
4r	.	8a	got
.	.	16g	the
.	.	[16a	look
8r	.	16a]	_
.	.	16g	_
8A	What	16e	_
.	.	16r	.
16A	in	4r	.
8A	the	.	.
[16c	world	.	.
=36	=36	=36	=36
8c]	_	1r	.
8c	can	.	.
8c	make	.	.
8c	a	.	.
16B	brown-	.	.
8B	-eyed	.	.
8.B	girl	.	.
8B	turn	.	.
=37	=37	=37	=37
8B	blue?	1r	.
8A	_	.	.
4r	.	.	.
8r	.	.	.
8A	When	.	.
16A	ev-	.	.
8A	-ery-	.	.
[16c	-thing	.	.
=38	=38	=38	=38
8c]	_	1r	.
8c	I'll	.	.
16c	e-	.	.
8c	-ver	.	.
[16B	do	.	.
8B]	_	.	.
8B	I	.	.
8B	do	.	.
16B	for	.	.
[16B	you	.	.
=39	=39	=39	=39
16B]	_	1r	.
8.A	_	.	.
4r	.	.	.
8r	.	.	.
8A	And	.	.
16A	I	.	.
8.A	go	.	.
=40	=40	=40	=40
8e	la	1r	.
16e	la	.	.
[16e	la	.	.
16e]	_	.	.
16e	la	.	.
16d	_	.	.
[16d	la	.	.
16d]	_	.	.
16r	.	.	.
8~G	She's	.	.
8~c	got	.	.
16B	the	.	.
[16B	look	.	.
=41	=41	=41	=41
16B]	_	1r	.
16A	_	.	.
8r	.	.	.
4r	.	.	.
2r	.	.	.
=42	=42	=42	=42
4r	.	1r	.
4~a	Oww!	.	.
2r	.	.	.
=43	=43	=43	=43
1r	.	1r	.
=44	=44	=44	=44
1r	.	1r	.
=45	=45	=45	=45
1r	.	1r	.
=46	=46	=46	=46
1r	.	1r	.
=47	=47	=47	=47
1r	.	1r	.
=48	=48	=48	=48
1r	.	1r	.
=49	=49	=49	=49
1r	.	1r	.
=50	=50	=50	=50
1r	.	1r	.
=51	=51	=51	=51
1r	.	1r	.
=52	=52	=52	=52
1r	.	1r	.
=53	=53	=53	=53
1r	.	1r	.
=54	=54	=54	=54
1r	.	1r	.
=55	=55	=55	=55
1r	.	1r	.
=56	=56	=56	=56
*clefF4	*	*	*
16~GG	Wal-	1r	.
16~AA	-king	.	.
16~AA	like	.	.
16~GG	a	.	.
8~AA	man	.	.
8r	.	.	.
16~GG	Hit-	.	.
16~AA	-ting	.	.
16~AA	like	.	.
16~GG	a	.	.
16~GG	ham-	.	.
16~AA	-mer	.	.
16~GG	She's	.	.
16~GG	a	.	.
=57	=57	=57	=57
16~GG	ju-	1r	.
16~GG	-ven-	.	.
8~GG	-ile	.	.
8~AA	scam	.	.
8r	.	.	.
16~GG	Ne-	.	.
16~AA	-ver	.	.
16~AA	was	.	.
16~GG	a	.	.
16~AA	qui-	.	.
8~AA	-tter	.	.
16r	.	.	.
=58	=58	=58	=58
16~GG	Tas-	1r	.
16~AA	-ty	.	.
16~AA	like	.	.
16~GG	a	.	.
8~AA	rain-	.	.
8~AA	-drop	.	.
8r	.	.	.
8~GG	She's	.	.
8~AA	got	.	.
16~GG	the	.	.
[16~AA	look	.	.
=59	=59	=59	=59
8~AA]	_	1r	.
8r	.	.	.
4r	.	.	.
8.r	.	.	.
16~A	And	.	.
16c	she	.	.
8.B	goes...	.	.
=60	=60	=60	=60
*clefG2	*	*	*
16g	Na	1r	.
16a	na	.	.
16a	na	.	.
16g	na	.	.
8a	na	.	.
16r	.	.	.
16a	Na	.	.
16g	na	.	.
16a	na	.	.
16a	na	.	.
16g	na	.	.
8a	na	.	.
16a	na	.	.
16a	na	.	.
=61	=61	=61	=61
16a	na	1r	.
16g	na	.	.
8g	na	.	.
16g	na	.	.
16a	_	.	.
8r	.	.	.
16g	na	.	.
16a	na	.	.
16a	na	.	.
16g	na	.	.
8a	na	.	.
16a	na	.	.
16a	na	.	.
=62	=62	=62	=62
16g	na	1r	.
16a	na	.	.
16a	na	.	.
16g	na	.	.
8a	na	.	.
8g	na	.	.
8r	.	.	.
8g	She's	.	.
8a	got	.	.
16g	the	.	.
[16a	look	.	.
=63	=63	=63	=63
16a]	_	1r	.
8.r	.	.	.
4r	.	.	.
8r	.	.	.
8G	She's	.	.
8A	got	.	.
16G	the	.	.
[16A	look	.	.
=64	=64	=64	=64
16A]	_	8r	.
16r	.	.	.
8r	.	8ee-	she's
4r	.	8dd	got
.	.	16cc	the
.	.	[16dd	look
8r	.	16dd]	_
.	.	16cc	_
8G	She's	8r	.
8A	got	4r	.
16G	the	.	.
[16A	look	.	.
=65	=65	=65	=65
16A]	_	16r	.
8.r	.	16~a	Uh
.	.	8cc#	she's
4r	.	8b	got
.	.	16a	the
.	.	[16b	look
8r	.	16b]	_
.	.	16a	_
8A	What	8r	.
16A	in	4r	.
8A	the	.	.
[16c	world	.	.
=66	=66	=66	=66
8c]	_	1r	.
8c	can	.	.
8c	make	.	.
8c	a	.	.
16B	brown-	.	.
8B	-eyed	.	.
8.B	girl	.	.
8B	turn	.	.
=67	=67	=67	=67
8B	blue?	1r	.
8A	_	.	.
4r	.	.	.
8r	.	.	.
8A	When	.	.
16A	ev-	.	.
8A	-ery-	.	.
[16c	-thing	.	.
=68	=68	=68	=68
8c]	_	1r	.
8c	I'll	.	.
16c	e-	.	.
8c	-ver	.	.
[16B	do	.	.
8B]	_	.	.
8B	I	.	.
8B	do	.	.
16B	for	.	.
[16B	you	.	.
=69	=69	=69	=69
16B]	_	1r	.
8.A	_	.	.
4r	.	.	.
8r	.	.	.
8A	And	.	.
16A	I	.	.
8.A	go	.	.
=70	=70	=70	=70
8e	la	1r	.
16e	la	.	.
[16e	la	.	.
16e]	_	.	.
16e	la	.	.
16d	_	.	.
[16d	la	.	.
16d]	_	.	.
16r	.	.	.
8~e	She's	.	.
8~e	got	.	.
16~d	the	.	.
[16~e	look	.	.
=71	=71	=71	=71
8~e]	_	1r	.
8r	.	.	.
4r	.	.	.
8r	.	.	.
8A	What	.	.
16A	in	.	.
8A	the	.	.
[16c	world	.	.
=72	=72	=72	=72
8c]	_	1r	.
8r	.	.	.
8r	.	.	.
8c	can	.	.
4B	make	.	.
8B	you	.	.
16B	so	.	.
[16B	blue	.	.
=73	=73	=73	=73
16B]	_	1r	.
8.A	_	.	.
4r	.	.	.
8r	.	.	.
8A	When	.	.
16A	ev-	.	.
16A	-e-	.	.
16A	-ry-	.	.
[16c	-thing	.	.
=74	=74	=74	=74
8c]	_	1r	.
8c	I'll	.	.
16c	e-	.	.
8c	-ver	.	.
[16B	do	.	.
8B]	_	.	.
8B	I	.	.
8B	do	.	.
16B	for	.	.
[16B	you	.	.
=75	=75	=75	=75
16B]	_	1r	.
8.A	_	.	.
4r	.	.	.
8r	.	.	.
8A	And	.	.
16A	I	.	.
8.A	go	.	.
=76	=76	=76	=76
8e	la	1r	.
16e	la	.	.
[16e	la	.	.
16e]	_	.	.
16e	la	.	.
16d	_	.	.
[16d	la	.	.
16d]	_	.	.
16r	.	.	.
8r	.	.	.
4r	.	.	.
=77	=77	=77	=77
*M2/4	*	*M2/4	*
2r	.	2r	.
=78	=78	=78	=78
*M4/4	*	*M4/4	*
16g	Na	1r	.
16a	na	.	.
16a	na	.	.
16g	na	.	.
8a	na	.	.
16r	.	.	.
16a	Na	.	.
16g	na	.	.
16a	na	.	.
16a	na	.	.
16g	na	.	.
8a	na	.	.
16a	na	.	.
16a	na	.	.
=79	=79	=79	=79
16a	na	1r	.
16g	na	.	.
8g	na	.	.
16g	na	.	.
16a	_	.	.
8r	.	.	.
16g	na	.	.
16a	na	.	.
16a	na	.	.
16g	na	.	.
8a	na	.	.
16a	na	.	.
16a	na	.	.
=80	=80	=80	=80
16g	na	1r	.
16a	na	.	.
16a	na	.	.
16g	na	.	.
8a	na	.	.
8g	na	.	.
8r	.	.	.
8g	She's	.	.
8a	got	.	.
16g	the	.	.
[16a	look	.	.
=81	=81	=81	=81
16a]	_	2r	.
16r	.	.	.
8r	.	.	.
4r	.	.	.
2r	.	8r	.
.	.	16r	.
.	.	16~A	And
.	.	16c	she
.	.	8.B	goes...
=82	=82	=82	=82
16g	Na	1r	.
16a	na	.	.
16a	na	.	.
16g	na	.	.
8a	na	.	.
16r	.	.	.
16a	Na	.	.
16g	na	.	.
16a	na	.	.
16a	na	.	.
16g	na	.	.
8a	na	.	.
16a	na	.	.
16a	na	.	.
=83	=83	=83	=83
16a	na	1r	.
16g	na	.	.
8g	na	.	.
16g	na	.	.
16a	_	.	.
8r	.	.	.
16g	na	.	.
16a	na	.	.
16a	na	.	.
16g	na	.	.
8a	na	.	.
16a	na	.	.
16a	na	.	.
=84	=84	=84	=84
16g	na	1r	.
16a	na	.	.
16a	na	.	.
16g	na	.	.
8a	na	.	.
8g	na	.	.
8r	.	.	.
8g	She's	.	.
8a	got	.	.
16g	the	.	.
[16a	look	.	.
=85	=85	=85	=85
16a]	_	8r	.
16r	.	.	.
8r	.	8e	She's
4r	.	8e	got
.	.	16d	the
.	.	16d	look
2r	.	8c	_
.	.	8r	.
.	.	16e	she
.	.	8.e-	goes...
=86	=86	=86	=86
16g	Na	1r	.
16a	na	.	.
16a	na	.	.
16g	na	.	.
8a	na	.	.
16r	.	.	.
16a	Na	.	.
16g	na	.	.
16a	na	.	.
16a	na	.	.
16g	na	.	.
8a	na	.	.
16a	na	.	.
16a	na	.	.
=87	=87	=87	=87
16a	na	1r	.
16g	na	.	.
8g	na	.	.
16g	na	.	.
16a	_	.	.
8r	.	.	.
16g	na	.	.
16a	na	.	.
16a	na	.	.
16g	na	.	.
8a	na	.	.
16a	na	.	.
16a	na	.	.
=88	=88	=88	=88
16g	na	1r	.
16a	na	.	.
16a	na	.	.
16g	na	.	.
8a	na	.	.
8g	na	.	.
8r	.	.	.
8g	She's	.	.
8a	got	.	.
16g	the	.	.
[16a	look	.	.
=89	=89	=89	=89
16a]	_	8r	.
16r	.	.	.
8r	.	8e	She's
4r	.	8e	got
.	.	16d	the
.	.	16d	look
2r	.	8c	_
.	.	8r	.
.	.	16e	she
.	.	8.e-	goes...
=90	=90	=90	=90
16g	Na	1r	.
16a	na	.	.
16a	na	.	.
16g	na	.	.
8a	na	.	.
16r	.	.	.
16a	Na	.	.
16g	na	.	.
16a	na	.	.
16a	na	.	.
16g	na	.	.
8a	na	.	.
16a	na	.	.
16a	na	.	.
=91	=91	=91	=91
16a	na	1r	.
16g	na	.	.
8g	na	.	.
16g	na	.	.
16a	_	.	.
8r	.	.	.
16g	na	.	.
16a	na	.	.
16a	na	.	.
16g	na	.	.
8a	na	.	.
16a	na	.	.
16a	na	.	.
=92	=92	=92	=92
16g	na	1r	.
16a	na	.	.
16a	na	.	.
16g	na	.	.
8a	na	.	.
8g	na	.	.
8r	.	.	.
8g	She's	.	.
8a	got	.	.
16g	the	.	.
[16a	look	.	.
=93	=93	=93	=93
16a]	_	8r	.
16r	.	.	.
8r	.	8e	She's
4r	.	8e	got
.	.	16d	the
.	.	16d	look
2r	.	8c	_
.	.	8r	.
.	.	16e	she
.	.	8.e-	goes...
r;	.	r;	.
r;	.	r;	.
*-	*-	*-	*-
!!!ENC: Nathaniel Condit-Schultz
!!!MBID: e42e2e0f-d320-47cf-948d-3ba9add0e2e3
